X: 2
T: Divertissement
C: Maria Szymanowska
%%abc-version 2.0
%%abcx-abcm2ps-target-version 5.9.1 (29 Sep 2008)
%%abc-creator hum2abc beta
%%abcx-conversion-date 2021/10/04 07:38:40
%%abc-edited-by Kamil Watkowski
%%abcx-initial-encoding-date 2021-08-08
%%humdrum-veritas 4238187393
%%humdrum-veritas-data 1288562610
%%linebreak <none>
%%barnumbers 0
L: 1/16
M: 2/4
N: Derived from pl-kozmzk--mzk-m-126_szymanowska-maria--divertissement.krn
V: 1 clef=treble
V: 2 clef=treble
V: 3 clef=bass
K: Bb
[V:1] z32 [|] 
[V:2] D>FB>c !accent!d2cB | 
[V:3] B,,2[D2B,2F,2] B,,2[D2B,2F,2] | 
[V:1]  [|] 
[V:2] A>ce>f {/ef} !accent!g2fe | 
[V:3] C,2[E2A,2F,2] F,,2[A,2E,2C,2] | 
[V:1]  [|] 
[V:2] d>fb>c' e'>d'{/d'}c'3/b/ | 
[V:3] B,,2[D2B,2F,2] B,,2[D2B,2F,2] | 
[V:1]  | 
[V:2] (3:2:6ac'f'a'g'=e' (3:2:6f'_e'c'afe | 
[V:3] [C2A,2C,2][B,2G,2C,2][A,4F,4] | 
[V:1] z32 | 
[V:2] d>fb>c' d'2c'b | 
[V:3] B,,2[D2B,2F,2] B,,2[D2B,2F,2] | 
[V:1]  | 
[V:2] (3:2:6abc'd'e'f' {/e'f'} g'3f'/e'/ | 
[V:3] C,2[E2A,2F,2] F,,2[A,2E,2C,2] | 
[V:1]  | 
[V:2] (3:2:6d'f'abdg (3:2:6fecGAF | 
[V:3] B,,2[D2B,2F,2] F,,2[A,2E,2C,2] | 
[V:1]  | 
[V:2] (3:2:6BdFBDFB,4 | 
[V:3] .B,,2.F,,2B,,,4 | 
[V:1] c2fa {/a} g>^fg3/=e/ | 
[V:2] [A2F2C2][A2F2C2][B2=E2C2][B2E2C2] | 
[V:3] [F,2F,,2][F,2F,,2][F,2F,,2][F,2F,,2] | 
[V:1] !accent!=f2(3f=ed !accent!d2c2 | 
[V:2] [A2F2C2][A2F2C2][B2G2=E2C2][B2G2E2C2] | 
[V:3] [F,2F,,2][F,2F,,2][F,2F,,2][F,2F,,2] | 
[V:1] c2fa {/a} g>^fg3/=e/ | 
[V:2] [A2F2C2][A2F2C2][B2=E2C2][E2C2B,2] | 
[V:3] [F,2F,,2][F,2F,,2][F,2F,,2][F,2F,,2] | 
[V:1] (3:2:6=fgf_efe (3:2:6dedcdc | 
[V:2] [F2A,2] _E2D2C2 | 
[V:3] [F,2F,,2] C2B,2F,2 | 
[V:1] B4z4 | 
[V:2] D>FB>c d2{/ed}cB | 
[V:3] B,,2[D2B,2F,2] B,,2[D2B,2F,2] | 
[V:1] z8 | 
[V:2] (3:2:12A/c/d/e/f/g/ a/c'/d'/e'/f'/g'/ [a'2e'2][b'2d'2] | 
[V:3] C,2[E2A,2F,2] [^F,2^F,,2][G,2G,,2] | 
[V:1] !accent!c'2>b2 (3!accent!ba_a- (3ag^f | 
[V:2] z2 [c2G2E2] z2 [c2G2E2] | 
[V:3] E,2 z2 E,2 z2 | 
[V:1] (3:2:6^fgB=fec f2!trill!A2 {/GA} | 
[V:2] z2 [c2G2E2][B2F2D2][A2E2C2] | 
[V:3] E,4F,2F,,2 | 
[V:1] B2{/c}(3BAB cd (3edc | 
[V:2] (3:2:6B[FD][FD][FD][FD][FD] (3[GE][GE][GE] (3[AFE][AFE][AFE] | 
[V:3] {/B,,} (3:2:6B,B,B,B,B,B, {/B,,} (3:2:6B,B,B,B,B,B, | 
[V:1] fd (3BAB Gc (3AGA | 
[V:2] (3:2:6[BFD][BFD][BFD][BFD][BFD][BFD] (3[GE][GE][GE] (3[AFE][AFE][AFE] | 
[V:3] {/B,,} (3:2:6B,B,B,B,B,B, {/B,,} (3B,B,B, {/B,,} (3B,B,B, | 
[V:1] B2{/c}(3BAB cd (3!accent!fec | 
[V:2] (3:2:24!accent!B/D/F/D/F/D/ !accent!B/D/F/D/F/D/ !accent!c/E/_G/E/G/E/ !accent!c/E/G/E/G/E/ | 
[V:3] B,,2 B,,2 B,,2 B,,2 & (3B,,B,B, (3B,,B,B, (3B,,B,B, (3B,,B,B, | 
[V:1] fd (3!accent!BAB Gc (3AGA | 
[V:2] (3:2:24!accent!d/D/F/D/F/D/ !accent!B/D/F/D/F/D/ !accent!c/E/G/E/G/E/ !accent!A/E/F/E/F/E/ | 
[V:3] B,,2 B,,2 B,,2 B,,2 & (3B,,B,B, (3B,,B,B, (3B,,B,B, (3B,,B,B, | 
[V:1] B2 z2 c2-(3c_dc | 
[V:2] (3:2:18B/D/F/D/F/D/ B/D/F/D/F/D/ z [c=EC][cEC] z [cEC][cEC] | 
[V:3] B,,2 B,,2 [B,2B,,2][B,2B,,2] & (3B,,B,B, (3B,,B,B,x4 | 
[V:1] f2(3f=ef g2(3b_ag | 
[V:2] (3z [cFC][cFC] (3z [_AFC][AFC] (3z [BGC][BGC] (3z [B=EC][BEC] | 
[V:3] [_A,2_A,,2][F,2F,,2] [=E,2=E,,2][C,2C,,2] | 
[V:1] !accent!f3/_e//_d//c2 c2{/d}(3c=Bc | 
[V:2] (3z [_AFC][AFC] (3z [AFC][AFC] (3z [GEC][GEC] (3z [GEC][GEC] | 
[V:3] [F,2F,,2][F,2F,,2] [G,2G,,2][G,2G,,2] | 
[V:1] !accent!g2-(3gfe {/e} (3:2:6.d.c.d.f.e.d | 
[V:2] (3z [cGE][cGE] (3z [cGE][cGE] (3z [=BFD][BFD] (3z [BFD][BFD] | 
[V:3] [G,2G,,2][G,2G,,2] [G,2G,,2][G,2G,,2] | 
[V:1] !fermata!c4!accent!B3_A ||  
[V:2] [c4E4C4]B3A & x4[F4B,4-] ||  
[V:3] !fermata!C,4[D,4D,,4] ||  
[V:1] [M:6/8]G4z2z4z2 | 
[V:2] [M:6/8][G4E4]G,B, EGBegb & B,4x8 | 
[V:3] [M:6/8][E,4E,,4]z2z4z2[K:clef=treble] | 
[V:1] z12 | 
[V:2] !accent!e'd'c'b!trill!_ag !accent!bagf!trill!ed | 
[V:3] [G4E4][G2E2][F4B,4][F2B,2] | 
[V:1] edcB!trill!_AG BAGF!trill!ED | 
[V:2] e4z2z4z2 | 
[V:3] [E4G,4][K:clef=bass][G,2E,2][F,4B,,4][F,2B,,2] | 
[V:1] E4z2z4z2 | 
[V:2] EGB,EG,B,x4z2 | 
[V:3] [E,2G,,2] .B,,2.G,,2[E,4E,,4]z2 | 
[V:1] !arpeggio![b4d4B4]z2z4z2 | 
[V:2] [b4f4d4B4]DF Bdfbd'f' | 
[V:3] [B,,4B,,,4]z2z4z2[K:clef=treble] | 
[V:1] z12 | 
[V:2] b'a'g'f'!trill!e'd' f'e'd'c'!trill!ba | 
[V:3] [d4B4][d2B2][c4F4][c2F2] | 
[V:1] bagf!trill!ed fedc!trill!BA | 
[V:2] b4z2z4z2 | 
[V:3] [B4D4][K:clef=bass][D2B,2][C4F,4][C2F,2] | 
[V:1] B4z2z4z2 | 
[V:2] BdFBDF .B, DFBd^f | 
[V:3] [B,2D,2]F,2D,2B,,4z2 | 
[V:1] [g4=B4G4]z2z4z2 | 
[V:2] [g4d4=B4G4]G,=B, DGBdg^f | 
[V:3] [G,4D,4=B,,4G,,4]G,,B,, D,G,=B,DG^F | 
[V:1] z12 | 
[V:2] g=fgegd gcg=B[gd]f | 
[V:3] G=FGEGD GCG=B,-[G2B,2] | 
[V:1] [g4c4G4]z2z4z2 | 
[V:2] [e4c4]CE Gcegc'=b | 
[V:3] [E4C4]C,E,[K:clef=treble] G,CEGc=B | 
[V:1] z12 | 
[V:2] c'_bc'_ac'g c'^fc'd-[d'ad]c' | 
[V:3] c_Bc_AcG c^FcD[K:clef=bass] [^F2^F,2] | 
[V:1] z4z2z4!accent!=B,2 | 
[V:2] [b4g4d4]G,B, DGBdgf | 
[V:3] [G4G,4]G,,B,, D,G,B,DGF | 
[V:1] C2 z2 CE Gcegc'b | 
[V:2] e2[K:clef=bass]C,,2 z2z4[K:clef=treble][=e'2=e2] | 
[V:3] E2 z2 C,E,[K:clef=treble] G,CEGcB | 
[V:1] _a2F2 z2z4=A,2 | 
[V:2] [f'2f2] z2 F,_A, CF_Acfe | 
[V:3] _A2 z2[K:clef=bass] F,,_A,, C,F,_A,CFE | 
[V:1] B,2 z2 B,D FBdfb_a | 
[V:2] .d2[K:clef=bass]B,,2 z2z4[K:clef=treble][d'2d2] | 
[V:3] D2 z2 B,,D,[K:clef=treble] F,B,DFB_A | 
[V:1] g2E2 z2z4z2 | 
[V:2] [e'2e2] z2 G,B, EGBeg=a | 
[V:3] G2 z2[K:clef=bass] G,,B,, E,G,B,EG=A | 
[V:1] z4.G,.C .E.^F.A.c.e.^f | 
[V:2] b2 z2 .G,.C .E.^F.A.c.e.^f[K:clef=treble] | 
[V:3] B2 z2 G,,C, E,^F,A,CE^F | 
[V:1] g4>.^f4.g2.a2 | 
[V:2] g2 [D=B,]G[DB,]G [EC]^F[EC]F[EC]F | 
[V:3] G2 G,,G,G,,G, G,,G,G,,G,G,,G, | 
[V:1] g4d2 c2{/dc}=B2A2 | 
[V:2] [D=B,]G[DB,]G[DB,]G [CA,]D[CA,]D[CA,]D | 
[V:3] G,,G,G,,G,G,,G, G,,^F,G,,F,G,,F, | 
[V:1] G4g2 .^f2.g2.a2 | 
[V:2] [D=B,]G[DB,]G[DB,]G [^FEC]A[FEC]A[FEC]A | 
[V:3] G,,G,G,,G,G,,G, G,,G,G,,G,G,,G, | 
[V:1] !accent!g4d2 c2{/dc}=B2A2 | 
[V:2] [D=B,]G[DB,]G[DB,]G [DCA,]^F[DCA,]^F[DCA,]^F | 
[V:3] G,,G,G,,G,G,,G, G,,G,G,,G,G,,G, | 
[V:1] G4=e2 d2A2=B2 | 
[V:2] [D=B,]G[DB,]G[DB,]G [DC]^F[DC]^F[DC]^F | 
[V:3] G,,G,G,,G,G,,G, G,,G,G,,G,G,,G, | 
[V:1] G2=e2d2 c2=E2^F2 | 
[V:2] [D=B,]G[DB,]G[DB,]G [CA,]^F[CA,]^F[CA,]^F | 
[V:3] G,,G,G,,G,G,,G, G,,G,G,,G,G,,G, | 
[V:1] .G2GA=BAG4z2 | 
[V:2] [G4D4=B,4]z2 z2 [=bg][c'a][d'b][c'a] | 
[V:3] [G,4G,,4]z2z4z2 | 
[V:1] z2 =BcdcB4z2 | 
[V:2] [=b4g4]z2 z2 [d'=b][e'c'][f'd'][e'c'] | 
[V:3] [G,4G,,4]z2z4z2 | 
[V:1] z2 d=efed4z2 | 
[V:2] [d'4=b4]z2 z2 [f'd'][=e'c'][d'b][c'a] | 
[V:3] [G,4G,,4]z2z4z2 | 
[V:1] z12 ||  
[V:2] [=bg][af][g=e][fd][ec][d=B] [cA][BG][AF][G=E][AF][BD] ||  
[V:3] z12 ||  
[V:1] [M:2/4]=E>Gc>d =e2{/fe}dc | 
[V:2] [M:2/4]z2 [c2G2=E2] z2 [c2G2E2] | 
[V:3] [M:2/4][C4C,4][C4C,4] | 
[V:1] =B>df>g !accent!a2gf | 
[V:2] z2 [=B2F2D2] z2 [B2F2D2] | 
[V:3] [G,4G,,4][G,4G,,4] | 
[V:1] =e>gc'>d' {/c'd'} =e'2d'c' | 
[V:2] z2 [c2G2=E2][=e2G2E2][d2A2D2] | 
[V:3] [C6C,6][^F,2^F,,2] | 
[V:1] =b>d'c'>a g2 z2 | 
[V:2] [=B2G2D2][A2^F2C2] [GD=B,][^F_EC][=F-D_A,][F=B,G,] | 
[V:3] {/G,,} G,2D,2G,,4 | 
[V:1] (3:2:6.^D=E^F.Gc^d !accent!=e2-(3e=dc | 
[V:2] [=E2C2G,2][E2C2G,2][E2C2G,2][E2C2G,2] | 
[V:3] {/C,,} C,2C,2C,2C,2 | 
[V:1] (3:2:6.=B^cd.=efg !accent!a2-(3agf | 
[V:2] [F2=B,2G,2][F2B,2G,2][F2D2G,2][F2D2G,2] | 
[V:3] D,2D,2=B,,2B,,2 | 
[V:1] (3:2:6=egceGc (3:2:6=BdfagB | 
[V:2] [=E2C2G,2][E2C2G,2] [F2=B,2G,2][F2B,2G,2] | 
[V:3] C,2C,2 G,,2G,,2 | 
[V:1] .c2.=e2 c2 z2 | 
[V:2] (3:2:6CG,=ECG,_E C2 z2 | 
[V:3] C,2C,2 C,2 z2 | 
[V:1] D8- | 
[V:2] d2g=b {/b} a>^ga3/^f/ | 
[V:3] D,2[K:clef=treble] [=B2G2D2][c2A2D2][c2A2D2] | 
[V:1] D8 | 
[V:2] (3:2:6g^fg!accent!ag=e =e3!accent!_e | 
[V:3] [=B2G2D2][B2G2D2] [A2^F2D2][A2F2D2][K:clef=bass] | 
[V:1] D8 | 
[V:2] d2g=b a=b/c'/=ba | 
[V:3] G,2[K:clef=treble] [=B2G2D2][c2^F2D2][c2F2D2] | 
[V:1] G2 ^G2A2=E2 | 
[V:2] (3gag (3fgf (3=efe (3ded & g2=B2c2^G2 | 
[V:3] [=B2G2] .^G2.A2.=E2 | 
[V:1] F4C2^C2 | 
[V:2] c2 fa {/a} g^fg=e & A2 x2_B4 | 
[V:3] F2 [A2F2][G2C2][G2^C2] | 
[V:1] D2D2 A,2A,2 | 
[V:2] (3:2:6f=efgfd d3^c & A4G4 | 
[V:3] [F2D2][F2D2][=E2A,2][E2A,2] | 
[V:1] B,2=B,2 C2=E2 | 
[V:2] d=e(3gfd (3:2:6!accent!dc=Ac_BG & F2_A2 F2=E2 | 
[V:3] [D2B,2][D2=B,2] !accent!C2[K:clef=bass]!accent!C,2 | 
[V:1] =E4F2 z2 ||  
[V:2] G4F4 & [G2B,2]CB,A,4 ||  
[V:3] F,2C,2F,,4 ||  
[V:1] f3f/f/ .f/.f/.f/.f/.f/.f/.f/.f/ | 
[V:2] [d/B/][f/F/][d/B/][f/F/][d/B/][f/F/][e/c/][f/F/] [d/B/][f/F/][e/c/][f/F/][d/B/][f/F/][e/c/][f/F/] | 
[V:3] B,,/[D/B,/]B,,/[D/B,/]B,,/[D/B,/]B,,/[E/C/] B,,/[D/B,/]B,,/[E/C/]B,,/[D/B,/]B,,/[E/C/] | 
[V:1] .f(3f/g/a/ b(3f/g/a/ b2 z2 | 
[V:2] [d/B/][f/F/][e/c/][f/F/] [d/B/][f/F/][e/c/][f/F/] d/ [f'/f/][d'/b/][e'/g/][c'/a/][d'/f/][b/g/][c'/=e/] & x4B/ x/ x x2 | 
[V:3] B,, [ECF,][DB,][ECF,] [D2B,2] z2 | 
[V:1] c3c/c/ c/c/c/c/ c/c/c/c/ | 
[V:2] [a/f/][c'/c/][a/f/][c'/c/] [a/f/][c'/c/][b/g/][c'/c/] [a/f/][c'/c/][a/f/][c'/c/] [a/f/][c'/c/][b/g/][c'/c/] | 
[V:3] [A,/F,/][C/C,/][A,/F,/][C/C,/] [A,/F,/][C/C,/][B,/G,/][C/C,/] [A,/F,/][C/C,/][A,/F,/][C/C,/] [A,/F,/][C/C,/][B,/G,/][C/C,/] | 
[V:1] .c(3c/d/=e/ f(3c/d/e/ f2 z2 | 
[V:2] [a/f/][c'/c/][b/g/][c'/c/] [a/f/][c'/c/][b/g/][c'/c/] [a/f/][b/d/][g/e/][a/c/][f/d/][g/B/][e/c/][f/A/] | 
[V:3] [A,F,] [B,G,C,][A,F,][B,C,] [A,2F,2] z2 | 
[V:1] f2-f/f/f/f/ {/g} f{/g}f{/g}f{/g}f | 
[V:2] [d/B/][f/F/][e/c/][f/F/] [d/B/][f/F/][e/c/][f/F/] [d/B/][f/F/][e/c/][f/F/] [d/B/][f/F/][e/c/][f/F/] | 
[V:3] B,, [D2B,2F,2] [ECF,] [DB,F,][ECF,][DB,F,][ECF,] | 
[V:1] d2-d/d/d/d/ !accent!e/d/!accent!e/d/!accent!e/d/!accent!e/d/ | 
[V:2] [dB] [B/G/][d/D/] [B/G/][d/D/][c/^F/][d/D/] [B/G/][d/D/][c/F/][d/D/] [B/G/][d/D/][c/F/][d/D/] | 
[V:3] [DB,] [B,2G,2D,2] [CA,D,] [B,G,D,][CA,D,][B,G,D,][CA,D,] | 
[V:1] B2-B/B/B/B/ (3B b=a(3c'bg | 
[V:2] [BG] [_A/F/][B/B,/][A/F/][B/B,/][A/F/][B/B,/] [GE][GE]z[cGE] | 
[V:3] [B,G,] [_A,2F,2B,,2] [A,F,B,,] E,2E,2 | 
[V:1] g/f/z/f/ f/e/z/e/ e/d/z/d/ !accent!_dc/B/ | 
[V:2] z [BFD] z [AEC] z [G-DB,] [G2_D2B,2] | 
[V:3] F,2!accent!^F,2G,2!accent!=E,2 | 
[V:1] .A/.c/.f .=e/.g/.c' .a/.f/.c !accent!d/c/B/G/ | 
[V:2] [F2C2A,2] z2z4 | 
[V:3] F,/A,/C/C,/ G,/B,/C/C,/ F,/A,/C/C,/ =E,/G,/C/C,/ | 
[V:1] F2 z2z4 | 
[V:2] (3F/A/c/!accent!f (3:2:18=e/g/b/c'/=e'/f'/ c'/^g/a/=e/f/=B/ d/c/_B/G/D/=E/ | 
[V:3] F,/A,/C/C,/ G,/B,/C/C,/ F,/A,/C/C,/ =E,/G,/C/C,/ | 
[V:1] (3F/A/c/f z2 (3F/B/d/f z2 | 
[V:2] F z (3f/a/c'/f' z2 (3f/a/c'/f' | 
[V:3] F,2 !accent!E,2 D,2 !accent!C,2 & F,/A,/C/A,/ E,/A,/C/A,/ D,/F,/B,/F,/ C,/E,/A,/E,/ | 
[V:1] (3D/B/d/f z2 (3F/B/d/f !fermata!z2 | 
[V:2] z2 (3e/b/c'/g' z2 (3e/a/c'/!fermata!f' | 
[V:3] B,,2 E,,2 F,,2 F,,2 & B,,/D,/B,/D,/ E,,/G,/C/G,/ F,,/D,/B,/F,/ F,,/E,/A,/!fermata!E,/ | 
[V:1] D>FB>c d2cB | 
[V:2] (3:2:6.D.F.A.B.d.f (3:2:6abd'f'a'b' | 
[V:3] B,,2 [D2B,2F,2][D2B,2F,2] z2 | 
[V:1] A>ce>f g2fe | 
[V:2] (3z .C.E(3.F.A.c (3:2:6.e.f.a.c'.e'.f' | 
[V:3] F,,2 [A,2E,2C,2][A,2E,2C,2] z2 | 
[V:1] d>fb>c' d'2(3d'c'b | 
[V:2] !accent!B2!accent!d2 !accent!f2!accent!b2 & (3:2:6F^CDB=EF (3:2:6dABf^cd | 
[V:3] .B,,2.D,2.F,2.B,2 | 
[V:1] ac'bg f2 z2 | 
[V:2] a2g2 (3:2:6fe_edec & (3:2:6f=Bc=eA_B (3:2:6FGABGE | 
[V:3] C2C,2 F,2 z2 | 
[V:1] [B8D8] | 
[V:2] [BD]>F[BD]>[cF] [d2B2][c3/F3/]B/ | 
[V:3] (3:2:6.B,,,.F,,.D,,.B,,.F,,.D, (3:2:6.B,,.F,.D,.B,.F,.D | 
[V:1] [A8E8] | 
[V:2] [AF]>c[eA]>f [_g2c2]-(3[gc]fe | 
[V:3] (3:2:6ECA,_G,E,C, (3A,, !accent!_G,E,(3C,A,,_G,, | 
[V:1] [B4D4][A4E4] | 
[V:2] f2f2 f2f2 & (3:2:6[dF][=e^c][_e=c][dB][cA][BG] (3:2:6[AF][BG][cA][dB][ec][cA] | 
[V:3] F,,4F,4 | 
[V:1] [c4E4][B2D2] z2 | 
[V:2] e2c2 B2 z2 & (3:2:6[cA]_GFGFE [F2D2] x2 | 
[V:3] (3:2:6F,,A,,C,E,F,A, B,2 z2 | 
[V:1] c2fa {/a} g>^fg3/=e/ | 
[V:2] (3FCA (3FCA (3=ECG (3ECG | 
[V:3] [F,2F,,2] [a2f2] [C,2C,,2] [b2g2] | 
[V:1] (3:2:6f=efgfd d2!accent!_dc | 
[V:2] (3FCA (3FCA (3=ECG (3ECG | 
[V:3] [F,2F,,2] [a2f2] [C,2C,,2] [g2e2] | 
[V:1] c2fa ga/b/ag | 
[V:2] (3FCA (3FCA (3=ECB (3ECB | 
[V:3] [F,2F,,2] [a2f2] [C,2C,,2] b2 | 
[V:1] .f2.=e2.d2.^c2 | 
[V:2] .a2.g2.f2.=e2 | 
[V:3] (3FA,A (3=EA,G (3DA,F (3^CA,E | 
[V:1] d4f2=ed | 
[V:2] (3:2:6[DF,][FB,][BD][dF][fB][bd] (3:2:6[DF,][F_A,][_A=B,][=BD][dF][fA] | 
[V:3] [B,,4B,,,4][=B,,4=B,,,4] | 
[V:1] !turn!c2!accent!b4a2 | 
[V:2] (3:2:6[=EG,][GB,][BE][=eG][gB][be] (3:2:6[=e'g][be][e'g][f'a][d'f][f'a] | 
[V:3] [C,4C,,4][^C,2^C,,2][D,2D,,2] | 
[V:1] (3:2:6g^fg!accent!c'bg c'2!trill!=e2 {/de} | 
[V:2] (3[d'g][bd][gB] (3[dG][BD][GB,] (3[FA,]C[FA,] (3[=EG,]B,[EG,] | 
[V:3] B,,4C,2C,,2 | 
[V:1] .f2._e2.d2.c2 | 
[V:2] (3[FF,] Ff (3[_ec]Ff (3[dB]Ff (3[cA]Ff | 
[V:3] F,,2[F,4F,,4][F,,2F,,,2] | 
[V:1] B>FB>c d2-(3dcB | 
[V:2] [B4D4]d2-(3dcB & x4F4 | 
[V:3] (3:2:24B,,,/C,,/_D,,/=D,,/E,,/=E,,/ F,,/^F,,/G,,/^G,,/A,,/B,,/ =B,,/C,/^C,/D,/E,/=E,/ F,/^F,/G,/^G,/A,/B,/ | 
[V:1] A>ce>f g2f3/e/ | 
[V:2] (3:2:24A/c/B/A/e/d/ c/a/g/f/c'/b/ a/e'/d'/c'/b/a/ g/f/=e/f/g/_e/ | 
[V:3] C2 z2 !arpeggio![A,2E,2C,2F,,2] z2 | 
[V:1] d>fb>c' d'2c'3/b/ | 
[V:2] (3:2:24d/A/B/f/^c/!accent!d/ b/=e/f/d'/!accent!a/b/ .f'/^c'/d'/.a/b/=e/ .f/^c/d/.A/=c/B/ | 
[V:3] !arpeggio![D4B,4F,4B,,4]z4 | 
[V:1] a2!trill!g2 {/fg} f2 z2 | 
[V:2] [A2F2][G2C2] (3:2:12[F/A,/] f/=e/_e/d/c/ .B/.A/.G/.F/.=E/._E/ | 
[V:3] {/C,} (3:2:24.C/^G,/A,/.=E,/F,/D,/ .C,/D,/C,/B,,/A,,/G,,/ F,,/ F,,,/G,,,/A,,,/B,,,/C,,/ .D,,/.E,,/.=E,,/.F,,/.G,,/.A,,/ | 
[V:1] z8 | 
[V:2] D>FB>c d2{/ed}cB | 
[V:3] (3:2:6B,,F,B,DB,F, (3:2:6B,,F,B,DB,F, | 
[V:1] !fermata!z8 | 
[V:2] !fermata!A4{/cBABcd edcdef agfgab c'babc'd' e'd'c'd'e'f'g'} [a'2e'2][b'2d'2] | 
[V:3] [E4A,4F,4C,4][^F,2^F,,2][G,2G,,2] | 
[V:1] !accent!c'2>b2 (3!accent!ba_a- (3ag^f | 
[V:2] z2 [c2G2E2] z2 [c2G2E2] | 
[V:3] E,2 z2 E,2 z2 | 
[V:1] (3:2:12^f/g/=a/g/d/e/ =f/e/d/e/G/c/ B2!trill!A2 {/GA} | 
[V:2] z2 [c2G2E2] [B2F2D2][A2E2C2] | 
[V:3] E,4F,2F,,2 | 
[V:1] B2{/c}(3BAB cd (3edc | 
[V:2] (3:2:6B[FD][FD][FD][FD][FD] (3:2:6[GE][GE][GE][AFE][AFE][AFE] | 
[V:3] {/B,,} (3:2:6B,B,B,B,B,B, {/B,,} (3:2:6B,B,B,B,B,B, | 
[V:1] fd (3BAB Gc (3AGA | 
[V:2] (3:2:6[BFD][BFD][BFD][BFD][BFD][BFD] (3[GE][GE][GE] (3[AFE][AFE][AFE] | 
[V:3] {/B,,} (3:2:6B,B,B,B,B,B, {/B,,} (3B,B,B, {/B,,} (3B,B,B, | 
[V:1] B2{/c}(3BAB cd (3fec | 
[V:2] (3:2:24B/D/F/D/F/D/ B/D/F/D/F/D/ c/D/_G/D/G/D/ c/D/G/D/G/D/ | 
[V:3] B,,2 B,,2 B,,2 B,,2 & (3B,,B,B, (3B,,B,B, (3B,,B,B, (3B,,B,B, | 
[V:1] fd (3BAB Gc (3AGA | 
[V:2] (3:2:24d/D/F/D/F/D/ B/D/F/D/F/D/ c/E/G/E/G/E/ A/E/F/E/F/E/ | 
[V:3] B,,2 B,,2 B,,2 B,,2 & (3B,,B,B, (3B,,B,B, (3B,,B,B, (3B,,B,B, | 
[V:1] B2b2- (3bag (3gf=e | 
[V:2] (3:2:24B/D/F/D/F/D/ B/D/F/D/F/D/ B/E/G/E/G/E/ G/^C/=E/C/E/C/ | 
[V:3] (3:2:6B,,B,B,B,B,B, (3:2:6B,,B,B,B,B,B, | 
[V:1] f>d Bb- (3bag (3gf=e | 
[V:2] (3:2:24F/D/F/D/F/D/ F/D/F/D/F/D/ B/E/G/E/G/E/ G/^C/=E/C/E/C/ | 
[V:3] (3:2:6B,,B,B,B,B,B, B,,2 B,,2 & x4(3B,,B,B, (3B,,B,B, | 
[V:1] {/=efg}!fermata!f8 | 
[V:2] [F8D8] | 
[V:3] !fermata!B,,8 | 
[V:1] z8 | 
[V:2] (3:2:24.b'/a'/g'/f'/e'/d'/ c'/b/a/g/f/=e/ !accent!g/f/_e/d/c/B/ A/G/F/=E/G/F/ | 
[V:3] [K:clef=treble](3:2:24b/a/g/f/e/d/ c/B/A/G/F/=E/ G/F/_E/D/C/B,/[K:clef=bass] A,/G,/F,/=E,/G,/F,/ | 
[V:1] (3:2:24b/a/g/f/e/d/ c/B/A/G/F/=E/ G/F/_E/D/C/B,/ A,/C/E/G/F/A,/ | 
[V:2] (3:2:24!accent!B/A/G/F/E/D/ C/B,/A,/G,/F,/=E,/ G,/F,/_E,/D,/C,/B,,/ A,,/C,/E,/G,/F,/A,,/ | 
[V:3] (3:2:24B,/A,/G,/F,/E,/D,/ C,/B,,/A,,/G,,/F,,/=E,,/ G,,/F,,/_E,,/D,,/C,,/B,,,/ A,,,/C,,/E,,/G,,/F,,/A,,,/ | 
[V:1] (3:2:6.B,.D.F.B.d.f (3:2:6.b.f.d.B.F.D | 
[V:2] (3:2:24B,,/F,/D,/B,/F,/D/ B,/F/D/B/F/d/ B/f/d/b/f/d'/ b/f'/d'/b'/f'/d'/ | 
[V:3] (3:2:24B,,,/F,,/D,,/B,,/F,,/D,/ B,,/F,/D,/B,/F,/D/[K:clef=treble] B,/F/D/B/F/d/ B/f/d/b/f/d/ | 
[V:1] (3:2:6.B,.D.F.B.F.D B,2 [f2A2] | 
[V:2] (3:2:12b/f/d/B/F/D/ B/F/D/B,/F,/D,/ B,,2 !arpeggio![a2e2c2A2] | 
[V:3] (3:2:12B/F/D/[K:clef=bass]B,/F,/D,/ B,/F,/D,/B,,/F,,/D,,/ B,,,2 [F,2F,,2] | 
[V:1] [f8B8D8] |]  
[V:2] [b8f8d8B8] |]  
[V:3] [B,,8B,,,8] |]  


